packages/core/src/svgs/tokens/mono/POKT.svg

<svg width="24" height="24" viewBox="0 0 24 24" fill="none" xmlns="http://www.w3.org/2000/svg">
<path d="M7.01059 11.3015C7.01059 7.16038 10.7214 6.18744 13.2474 6.39949V2.09612C10.7833 1.78032 8.2899 2.39501 6.25494 3.82002C4.21998 5.24502 2.78974 7.37785 2.24388 9.80147C1.69803 12.225 2.07582 14.765 3.3034 16.9249C4.53097 19.0846 6.52003 20.709 8.88163 21.48V17.7566C8.87996 17.4906 8.93133 17.2269 9.03276 16.9809C9.13418 16.7348 9.28363 16.5116 9.47238 16.324C9.66112 16.1365 9.88523 15.9885 10.1319 15.8885C10.3786 15.7886 10.6425 15.7389 10.9086 15.7422H12.0499C14.7878 15.7422 15.1184 13.1664 15.1184 12.6986C15.1184 12.3806 14.9875 12.0874 14.8377 11.7631C14.7629 11.6071 14.6881 11.445 14.6257 11.2641C14.4698 10.8276 14.6881 10.4284 14.8252 10.2851L15.8293 9.50533C16.5414 10.4218 16.9472 11.5389 16.9894 12.6986C16.9894 16.8398 13.2786 17.8128 10.7527 17.6007V21.904C13.2169 22.22 15.7101 21.6053 17.7452 20.1801C19.78 18.7552 21.2102 16.6224 21.7561 14.1988C22.302 11.7752 21.9242 9.23509 20.6967 7.07535C19.469 4.91554 17.48 3.2913 15.1184 2.52022V6.24357C15.12 6.50963 15.0687 6.77337 14.9672 7.01935C14.8658 7.26534 14.7164 7.48864 14.5278 7.67619C14.339 7.86376 14.1148 8.01181 13.8681 8.11171C13.6216 8.21162 13.3574 8.26137 13.0914 8.25805H11.9501C9.21218 8.25805 8.88163 10.8338 8.88163 11.3015C8.88163 11.6197 9.01261 11.9127 9.16226 12.2371C9.23706 12.393 9.31201 12.5552 9.37429 12.736C9.53029 13.1726 9.31201 13.5717 9.17478 13.7152L8.17064 14.4948C7.45859 13.5784 7.05277 12.4614 7.01059 11.3015Z" fill="white"/>
</svg>

<svg xmlns="http://www.w3.org/2000/svg" width="24" height="24" fill="none" viewBox="0 0 24 24">
    <path fill="#fff" d="M7.01 11.302c0-4.142 3.711-5.115 6.237-4.903V2.096A9.979 9.979 0 0 0 8.882 21.48v-3.723a2 2 0 0 1 2.027-2.015h1.14c2.739 0 3.07-2.576 3.07-3.043 0-.318-.131-.612-.281-.936a5 5 0 0 1-.212-.499c-.156-.436.062-.836.2-.979l1.003-.78a5.53 5.53 0 0 1 1.16 3.194c0 4.14-3.71 5.114-6.236 4.902v4.303a9.977 9.977 0 0 0 9.944-14.829 9.98 9.98 0 0 0-5.579-4.555v3.724a2 2 0 0 1-2.027 2.014h-1.14c-2.739 0-3.07 2.576-3.07 3.044 0 .318.132.61.281.935.075.156.15.318.212.499.156.437-.062.836-.2.98l-1.003.779a5.53 5.53 0 0 1-1.16-3.193"/>
</svg>
